X:1
T:Entree
T: Laukens Music Productions  
T:ENTREE
T:Mars
C:Traditional
Z:All Rights Reserved
L:1/8
Q:1/4=120
M:4/4
K:C
V:1 treble nm="MusicXML Part"
%%MIDI program 0
%%MIDI control 7 102
%%MIDI control 10 64
V:1
 C |:"C" CC/C/ CC/C/ CC/C/ CC/C/ | EC/C/ CC C3 E | EE/E/ EE/E/ EE/E/ EE/E/ | GE/E/ EE E3 E | %5
"G7" G3 E/G/"C" c3 C/E/ |"G7" G2 G2"C" C3 E |"G7" G3 E/G/"C" c3 C/E/ |"G7" G2 G2"C" C2 c2 | %9
"G7" B2 AG F2 ED |"C" C>C CE G3 G |"G7" GG/G/ GG G3 G |"C" cG EC"G7" G2"C" c2 |"G7" B2 AG F2 ED | %14
"C" C>C CE G3 C/E/ |"G7" G2 GG"C" c2 C2 |1"G7" G2 G2"C" C3 C :|2"G7" G2 G2"C" C z c z |] %18

